!!!!SEGMENT: pl-wn--sd-xvi-qu-273--139_gomolka-mikolaj--tobie-rzadzca-niebieski-tobie-moj-boze.krn
!!!cenid: 15xx:344
!!!COM: Gomółka, Mikołaj
!!!COM-rismid: pe30013343
!!!CDT: ~1535->1591/04/30
!!!CNT: Polish
!!!GTL: Melodiae na psalterz polski
!!!OTL: CXXXIX. Tobie, rządźca niebieski, Tobie, mój Boże,
!!!PDT: 1580
!!!AGN: Sacred
!!!SMS-siglum: PL-Wn
!!!SMS-shelfmark: SD XVI.Qu.273
!!!SMS-shelfwork: 139 G
!!!NIFC-rismid:
!!!ONB-nifc: Melodiae na psalterz polski
**kern	**text	**kern	**text	**kern	**text	**kern	**text
*part4	*part4	*part3	*part3	*part2	*part2	*part1	*part1
*staff4	*staff4	*staff3	*staff3	*staff2	*staff2	*staff1	*staff1
*clefF4	*	*clefC3	*	*clefC3	*	*clefG2	*
*k[b-]	*	*k[b-]	*	*k[b-]	*	*k[b-]	*
*g:	*	*g:	*	*g:	*	*g:	*
*M4/2	*	*M4/2	*	*M4/2	*	*M4/2	*
*met(C|)	*	*met(C|)	*	*met(C|)	*	*met(C|)	*
=1	=1	=1	=1	=1	=1	=1	=1
2GG	To-	2G	To-	2d	To-	2g	To-
2GG	-bie	2G	-bie	2d	-bie	2g	-bie
2.GG	rӡądʒ́	2.B-	rӡądʒ́	2.g	rӡądʒ́	2.dd	rӡądʒ́
4AA	.	4A	.	4f	.	4cc	.
=2-	=2	=2	=2	=2	=2	=2	=2
2BB-	cá	4G	cá	2.d	cá	2b-/	cá
.	.	4F	.	.	.	.	.
2GG	nie-	2G	nie-	.	.	2b-/	nie-
.	.	.	.	4e	nie-	.	.
2.D/	-bieʃ-	2F	-bieʃ-	2f	-bieʃ-	2a	-bieʃ-
.	.	2A	-ťi/	2f	-ťi/	2dd	-ťi/
4E	-ťi/	.	.	.	.	.	.
=3-	=3	=3	=3	=3	=3	=3	=3
4F	to	2A	to-	2f	to-	2cc	to-
4D	.	.	.	.	.	.	.
2G	bie	2B-	-bie	4d	-bie	1b-	-bie
.	.	.	.	4e	.	.	.
1F	móy	1c	móy	2.f	.	.	.
.	.	.	.	.	.	2a	móy
.	.	.	.	4e-X	móy	.	.
=4-	=4	=4	=4	=4	=4	=4	=4
2BB-	bo-	2B-	bo-	2d	bo-	2b-/	bo-
2BB-	-ʒ̇e/	2B-	-ʒ̇e/	2f	-ʒ̇e/	2dd	-ʒ̇e/
2F	Rӡecʒ	2A	Rӡecʒ	2f	Rӡecʒ	2cc	Rӡecʒ
2/D	na-	2F	na-	2f	na-	4dd	na
.	.	.	.	.	.	4cc	.
=5-	=5	=5	=5	=5	=5	=5	=5
2E-X	-mniey:	2G	-mniey:	4e	-mniey:	2b-/	mniey:
.	.	.	.	4d	.	.	.
2F	ʃťy	4A	ʃťy	4c/	ʃťy	2.a	ʃťy
.	.	4B-	.	4B-	.	.	.
2F	.	4c/	.	2A	.	.	.
.	.	4B-	.	.	.	4g	.
2F	.	4c	.	2f	.	4a	.
.	.	4d	.	.	.	4b-/	.
!!LO:PB:g=original
=6-	=6	=6	=6	=6	=6	=6	=6
2.C	ta	2.e	ta	2.g	ta	2.cc	ta
4D	.	4d	.	4f	.	4b-/	.
2F	być	4c/	być	4f	być	4a	być
.	.	4B-	.	4e	.	4g	.
2G	we	4A	we	4d	we	1g	we
.	.	4G	.	4c	.	.	.
=7-	=7	=7	=7	=7	=7	=7	=7
1D	mnie	1A	mnie	2.d	mnie	.	.
.	.	.	.	.	.	2f	mnie
.	.	.	.	4c/	.	.	.
2GG	nie-	2G	nie-	2B-	nie-	2g	nie
2D/	-mo-	2F	-mo-	2d	-mo-	2a	mo-
=8-	=8	=8	=8	=8	=8	=8	=8
2D/	-ʒ̇e:	2f	-ʒ̇e:	2d	-ʒ̇e:	2a	-ʒ̇e:
2AA	Ty	2e	Ty	2c/	Ty	2cc	Ty
2.BB-	mię	2.d	mię	2f	mię	2/.b-	mię
.	.	.	.	2f	.	.	.
4FF	.	4c/	.	.	.	4a	.
=9-	=9	=9	=9	=9	=9	=9	=9
4GG	ӡnaʃᴣ	2B-	ӡnaʃᴣ	1d	ӡnaʃᴣlu-	4g	ӡnaʃᴣ
4AA	.	.	.	.	.	4f	.
4BB-	lu	2B-	lu-	.	.	2g	lu-
4C	.	.	.	.	.	.	.
2D/	bo	2A	-bo	2d	-bo	2f	-bo
4B-	śie	4d	śie	2d	śie-	2f	śie-
4A	.	4c	.	.	.	.	.
=10-	=10	=10	=10	=10	=10	=10	=10
4G	dӡę/	2B-	dӡę/	2d	-dӡę/	4g	-dӡę/
4F	.	.	.	.	.	4a	.
2E-X	ʒnaʃᴣ	4e	ʒnaʃᴣ	2g	ʒnaʃᴣ	1b-	ʒnaʃᴣlu-
.	.	4d	.	.	.	.	.
2F	lu-	4c/	lu	2.f	lu-	.	.
.	.	4B-	.	.	.	.	.
2FF	-bo	2c/	bo	.	.	2a	-bo
.	.	.	.	4e	-bo	.	.
=11-	=11	=11	=11	=11	=11	=11	=11
2BB-	ʃto-	2B-	ʃto-	2d	ʃto-	2b-/	ʃto-
2B-	-ię/	2B-	-ię/	2f	-iy	2dd	-ię/
!!LO:PB:g=original
2A	Y	2c/	Y	2f	Y	2cc	Y
2G	ӡ_dá-	1d	ӡ_dá_le-	4d	ӡ_dá-	2b-/	ӡ_dá-
.	.	.	.	4e	.	.	.
=12-	=12	=12	=12	=12	=12	=12	=12
2F	-le-	.	.	2f	le-	2a	-le-
2E-X	-ťá	2G	ťá	4B-	-ťá	2g	-ťá
.	.	.	.	4c/	.	.	.
2.D/	ro-	2A	ro-	4d	ro-	2.f	ro-
.	.	.	.	4c	.	.	.
.	.	2F	.	4d	.	.	.
4C	.	.	.	4e	.	4e	.
=13-	=13	=13	=13	=13	=13	=13	=13
4BB-	ӡu	2B-	ӡu-	2f	ӡu-	2d	ӡu-
4AA	.	.	.	.	.	.	.
2GG	miéʃᴣ	2G	-miéʃᴣ	2g	-miéʃᴣ	2b-/	-miéʃᴣ
2C	wʃᴣyt-	4c/	wʃᴣyt	2e-X	wʃᴣyt-	2a	wʃᴣyt-
.	.	4B-	.	.	.	.	.
2E	-ťę	4A	ťę	2c/	-ťę	1g	-ťęmyśl
.	.	4G	.	.	.	.	.
=14-	=14	=14	=14	=14	=14	=14	=14
1D	myślmo-	1A	myślmo-	2.d	myśl	.	.
.	.	.	.	.	.	2f	mo-
.	.	.	.	4c/	mo-	.	.
!'ogonek po lewej stronie'	!	!	!	!	!	!'ogonek po lewej stronie'	!
!!LO:N:vis=00
1GG/	-ię.	1G/	-ię.	1B-/	-ię.	1g/	-ię.
=	==	==	==	==	==	==	==
*-	*-	*-	*-	*-	*-	*-	*-
!!!RDF**kern: l = terminal long
!!!system-decoration: s1,s2,s3,s4
!!!ENC:Anna Matuszewska
!!!END:2020-02-22
!!!URL-scan: https://polona.pl/item/melodiae-na-psalterz-polski,Nzk3MTM4ODQ/323 Scan on Polona
!!!IIIF: https://polona.pl/iiif/item/Nzk3MTM4ODQ/manifest.json
